app/assets/v2/images/avatar/Clothing/shirtsweater-43B9F9.svg

<svg width="899" height="1415" fill="none" xmlns="http://www.w3.org/2000/svg"><path fill="none" d="M26 1051h845.2v363.6H26z"/><path fill-rule="evenodd" clip-rule="evenodd" d="M871.2 1309.4v-.4c0-73.2-43.7-139.4-111-168.2L643.6 1091c-61.6-26.4-127.9-39.9-195-39.9-67 0-133.3 13.6-195 39.9L137 1140.8c-67.3 28.8-111 95-111 168.2v105.6h845.2v-105.2z" fill="#43B9F9"/><path d="M690.1 1253.1l5.4 142.4m-488.4-142.4l-8.9 142.4 8.9-142.4z" stroke="#333" stroke-width="12.523" stroke-linecap="round"/><path d="M448.6 1078c31.5 0 63.2 3.2 94.1 9.5 30.9 6.3 61.3 15.8 90.3 28.2l116.6 49.9c57.5 24.6 94.6 80.9 94.6 143.4v78.6H53V1309c0-62.5 37.1-118.8 94.6-143.4l116.6-49.9c29-12.4 59.4-21.9 90.3-28.2 30.9-6.3 62.6-9.5 94.1-9.5zm0-27c-67 0-133.3 13.6-195 39.9L137 1140.8c-67.3 28.8-111 95-111 168.2v105.6h845.2V1309c0-73.2-43.7-139.4-111-168.2L643.6 1091c-61.7-26.4-128-40-195-40z" fill="#333"/><path fill="none" d="M278 1063h338.592v236H278z"/><path opacity=".15" d="M363 1212s62.925 87 84.746 87c21.821 0 85.254-87 85.254-87" stroke="#000" stroke-width="11.05" stroke-dasharray="5 10"/><path d="M455.26 1266.39c-3.949 4.14-10.56 4.13-14.496-.03L287.852 1105c125.568 114.05 195.939 113.29 321.296 0L455.26 1266.39z" fill="#fff" stroke="#333" stroke-width="15"/><path d="M326.475 1055.93l-7.071-8.43-8.427 7.07-40.048 33.61-8.426 7.07 7.07 8.43 114.544 136.5 7.071 8.43 8.426-7.07 40.048-33.61 7.634-6.4 7.633 6.4 40.048 33.61 8.427 7.07 7.07-8.43 114.544-136.5 7.071-8.43-8.427-7.07-40.048-33.61-8.426-7.07-7.071 8.43-114.544 136.51-6.277 7.48-6.278-7.48-114.543-136.51z" fill="#fff" stroke="#333" stroke-width="22"/></svg>

<svg width="899" height="1415" viewBox="0 0 899 1415" fill="none" xmlns="http://www.w3.org/2000/svg">
<rect width="845.2" height="363.6" fill="black" fill-opacity="0" transform="translate(26 1051)"/>
<rect width="845.2" height="363.6" fill="black" fill-opacity="0" transform="translate(26 1051)"/>
<path fill-rule="evenodd" clip-rule="evenodd" d="M871.2 1309.4V1309C871.2 1235.8 827.5 1169.6 760.2 1140.8L643.6 1091C582 1064.6 515.7 1051.1 448.6 1051.1C381.6 1051.1 315.3 1064.7 253.6 1091L137 1140.8C69.7 1169.6 26 1235.8 26 1309V1414.6H871.2V1309.4Z" fill="#43B9F9"/>
<path d="M690.1 1253.1L695.5 1395.5M207.1 1253.1L198.2 1395.5L207.1 1253.1Z" stroke="#333333" stroke-width="12.523" stroke-linecap="round"/>
<path d="M448.6 1078C480.1 1078 511.8 1081.2 542.7 1087.5C573.6 1093.8 604 1103.3 633 1115.7L749.6 1165.6C807.1 1190.2 844.2 1246.5 844.2 1309V1387.6H53V1309C53 1246.5 90.1 1190.2 147.6 1165.6L264.2 1115.7C293.2 1103.3 323.6 1093.8 354.5 1087.5C385.4 1081.2 417.1 1078 448.6 1078ZM448.6 1051C381.6 1051 315.3 1064.6 253.6 1090.9L137 1140.8C69.7 1169.6 26 1235.8 26 1309V1414.6H871.2V1309C871.2 1235.8 827.5 1169.6 760.2 1140.8L643.6 1091C581.9 1064.6 515.6 1051 448.6 1051Z" fill="#333333"/>
<rect width="338.592" height="236" fill="black" fill-opacity="0" transform="translate(278 1063)"/>
<path opacity="0.15" d="M363 1212C363 1212 425.925 1299 447.746 1299C469.567 1299 533 1212 533 1212" stroke="black" stroke-width="11.05" stroke-dasharray="5 10"/>
<path d="M455.26 1266.39C451.311 1270.53 444.7 1270.52 440.764 1266.36L287.852 1105C413.42 1219.05 483.791 1218.29 609.148 1105L455.26 1266.39Z" fill="white" stroke="#333333" stroke-width="15"/>
<path d="M326.475 1055.93L319.404 1047.5L310.977 1054.57L270.929 1088.18L262.503 1095.25L269.573 1103.68L384.117 1240.18L391.188 1248.61L399.614 1241.54L439.662 1207.93L447.296 1201.53L454.929 1207.93L494.977 1241.54L503.404 1248.61L510.474 1240.18L625.018 1103.68L632.089 1095.25L623.662 1088.18L583.614 1054.57L575.188 1047.5L568.117 1055.93L453.573 1192.44L447.296 1199.92L441.018 1192.44L326.475 1055.93Z" fill="white" stroke="#333333" stroke-width="22"/>
</svg>
